X: 571
T:Dance of the Welsh Vicar
R:slip jig
S:mp3 at http://www.irishbanjo.com/audio.html
D:Richard Durrant, from the Duellin Banjos CD
N:Posted to the woodenflute mailing list August 2002
Z:lesl
M:9/8
L:1/8
K:C
a2A A2g A2f|e3-e2A A2A|B2c d2B G2A|B2G E2F G2E|
A2a A2g A2f|e3-e2A A2A|B2c d2B G2A|Bcd c2B A2A:|
|:Bcc A2c G2c|F2G EGc e2c|d2e f2d B2c|d2B G2A B2G|
Bcc A2c G2c|F2G EGc e2c|d2e f2d B2d|cde fed c3:|
<end>
<start>
